src/pos-icons/gift.svg

<svg height="24" viewBox="0 0 24 24" width="24" xmlns="http://www.w3.org/2000/svg"><path d="m9.06 1.93c-1.89-.01-3.73 1.81-2.89 4.07h-3.17a2 2 0 0 0 -2 2v2a1 1 0 0 0 1 1h9v-3h2v3h9a1 1 0 0 0 1-1v-2a2 2 0 0 0 -2-2h-3.17c1.17-3.27-3.23-5.58-5.26-2.76l-.57.76-.57-.78c-.63-.89-1.5-1.28-2.37-1.29m-.06 2.07c.89 0 1.34 1.08.71 1.71s-1.71.18-1.71-.71a1 1 0 0 1 1-1m6 0c.89 0 1.34 1.08.71 1.71s-1.71.18-1.71-.71a1 1 0 0 1 1-1m-13 8v8a2 2 0 0 0 2 2h16a2 2 0 0 0 2-2v-8h-9v8h-2v-8z"/></svg>

<?xml version="1.0" encoding="UTF-8"?><!DOCTYPE svg PUBLIC "-//W3C//DTD SVG 1.1//EN" "http://www.w3.org/Graphics/SVG/1.1/DTD/svg11.dtd"><svg xmlns="http://www.w3.org/2000/svg" xmlns:xlink="http://www.w3.org/1999/xlink" version="1.1" id="mdi-gift" width="24" height="24" viewBox="0 0 24 24"><path d="M9.06,1.93C7.17,1.92 5.33,3.74 6.17,6H3A2,2 0 0,0 1,8V10A1,1 0 0,0 2,11H11V8H13V11H22A1,1 0 0,0 23,10V8A2,2 0 0,0 21,6H17.83C19,2.73 14.6,0.42 12.57,3.24L12,4L11.43,3.22C10.8,2.33 9.93,1.94 9.06,1.93M9,4C9.89,4 10.34,5.08 9.71,5.71C9.08,6.34 8,5.89 8,5A1,1 0 0,1 9,4M15,4C15.89,4 16.34,5.08 15.71,5.71C15.08,6.34 14,5.89 14,5A1,1 0 0,1 15,4M2,12V20A2,2 0 0,0 4,22H20A2,2 0 0,0 22,20V12H13V20H11V12H2Z" /></svg>
